X:268
T:Ardkinglass's Delight
O:england
N:For Ger. Flute
M:C|
K:D
"Slow" D2|\
F2A2 B2d2| e2f2 a3b| \
a2ba (ba)(fd)| (e/f/g) e2-e3D|\
F2A2 B2d2| e2f2 b/c'/d'b2|
agaf "tr"e3d| d/e/fd2 d2::\
a2|\
f2a2 bc'd'2| abaf e3d|
(fd)(fa) (ba)(fd)| (d/e/f)e4 d2|\
B2d2 F2A2| B2d2 b/c'/d'b2| \
(ab)(af) "tr"e3d| (d/e/f)d2 d2:|


